packages/core/src/svgs/meta.svg

<svg width="24" height="24" viewBox="0 0 24 24" fill="none" xmlns="http://www.w3.org/2000/svg">
<g clip-path="url(#clip0_31_13766)">
<path d="M0 0H24V24H0V0Z" fill="url(#paint0_linear_31_13766)"/>
<path d="M5.57143 8.53735V10.3202C5.57143 10.5302 5.38714 10.7145 5.17714 10.7145H3.38571C3.17143 10.7145 3 10.5259 3 10.3202V8.53735C3 8.32735 3.17143 8.14307 3.38571 8.14307H5.17714C5.39143 8.14307 5.57143 8.32735 5.57143 8.53735ZM8.18571 11.1431H6.40286C6.18857 11.1431 6 11.3659 6 11.5716V16.3159C6 16.5302 6.19286 16.7145 6.40286 16.7145H8.18143C8.39571 16.7145 8.56714 16.4959 8.56714 16.2859V11.5716C8.56714 11.3616 8.39571 11.1431 8.18143 11.1431H8.18571ZM12.6986 11.1431H14.1557C14.37 11.1431 14.5714 11.3659 14.5714 11.5759V16.3159C14.5714 16.5259 14.37 16.7145 14.16 16.7145H12.3771C12.1629 16.7145 12 16.5259 12 16.3159V11.9574C12 11.4002 11.37 10.7188 10.8 10.7188H9.38571C9.17143 10.7188 8.99571 10.5345 8.99571 10.3245V8.54164C8.99571 8.33164 9.17143 8.14735 9.38143 8.14735H11.1943C11.4086 8.14735 11.5671 8.33164 11.5671 8.54164V10.1274C11.5671 10.6931 12.1243 11.1474 12.6943 11.1474L12.6986 11.1431ZM18.27 11.1431H19.7271C19.9414 11.1431 20.1429 11.3659 20.1429 11.5759V16.3159C20.1429 16.5259 19.9414 16.7145 19.7314 16.7145H17.9486C17.7343 16.7145 17.5714 16.5259 17.5714 16.3159V11.9574C17.5714 11.4002 16.9414 10.7188 16.3714 10.7188H14.9571C14.7429 10.7188 14.5671 10.5345 14.5671 10.3245V8.54164C14.5671 8.33164 14.7429 8.14735 14.9529 8.14735H16.7657C16.98 8.14735 17.1386 8.33164 17.1386 8.54164V10.1274C17.1386 10.6931 17.6957 11.1474 18.2657 11.1474L18.27 11.1431Z" fill="white"/>
</g>
<defs>
<linearGradient id="paint0_linear_31_13766" x1="4.46571" y1="4.16143" x2="29.2071" y2="32.58" gradientUnits="userSpaceOnUse">
<stop stop-color="#1A1E21"/>
<stop offset="1" stop-color="#06060A"/>
</linearGradient>
<clipPath id="clip0_31_13766">
<rect width="24" height="24" fill="white"/>
</clipPath>
</defs>
</svg>

<svg xmlns="http://www.w3.org/2000/svg" width="24" height="24" fill="none" viewBox="0 0 24 24"><g clip-path="url(#a)"><path fill="url(#b)" d="M0 0h24v24H0z"/><path fill="#fff" d="M5.571 8.537v1.783c0 .21-.184.394-.394.394H3.386A.397.397 0 0 1 3 10.32V8.537c0-.21.171-.394.386-.394h1.791c.214 0 .394.184.394.394m2.615 2.606H6.403c-.214 0-.403.223-.403.429v4.744c0 .214.193.399.403.399H8.18c.215 0 .386-.22.386-.43v-4.713c0-.21-.171-.429-.386-.429zm4.513 0h1.457c.214 0 .415.223.415.433v4.74c0 .21-.201.399-.411.399h-1.783c-.214 0-.377-.19-.377-.4v-4.358c0-.557-.63-1.238-1.2-1.238H9.386a.4.4 0 0 1-.39-.394V8.542c0-.21.175-.395.385-.395h1.813c.215 0 .373.185.373.395v1.585c0 .566.557 1.02 1.127 1.02zm5.571 0h1.457c.214 0 .416.223.416.433v4.74c0 .21-.202.399-.412.399H17.95c-.215 0-.378-.19-.378-.4v-4.358c0-.557-.63-1.238-1.2-1.238h-1.414a.4.4 0 0 1-.39-.394V8.542c0-.21.176-.395.386-.395h1.813c.214 0 .373.185.373.395v1.585c0 .566.557 1.02 1.127 1.02z"/></g><defs><linearGradient id="b" x1="4.466" x2="29.207" y1="4.161" y2="32.58" gradientUnits="userSpaceOnUse"><stop stop-color="#1A1E21"/><stop offset="1" stop-color="#06060A"/></linearGradient><clipPath id="a"><path fill="#fff" d="M0 0h24v24H0z"/></clipPath></defs></svg>
